svg/aws-ec2-m6i.svg

<?xml version="1.0" encoding="UTF-8"?>
<svg xmlns="http://www.w3.org/2000/svg" xmlns:xlink="http://www.w3.org/1999/xlink" width="32" height="32" viewBox="0 0 32 32">
<path fill-rule="evenodd" fill="rgb(83.137255%, 35.686275%, 2.745098%)" fill-opacity="1" d="M 6 26 L 26 26 L 26 6 L 6 6 Z M 27.332031 8.667969 L 27.332031 11.332031 L 30.667969 11.332031 L 30.667969 12.667969 L 27.332031 12.667969 L 27.332031 15.332031 L 30.667969 15.332031 L 30.667969 16.667969 L 27.332031 16.667969 L 27.332031 19.332031 L 30.667969 19.332031 L 30.667969 20.667969 L 27.332031 20.667969 L 27.332031 23.332031 L 30.667969 23.332031 L 30.667969 24.667969 L 27.332031 24.667969 L 27.332031 26.667969 C 27.332031 27.035156 27.035156 27.332031 26.667969 27.332031 L 24.667969 27.332031 L 24.667969 30.667969 L 23.332031 30.667969 L 23.332031 27.332031 L 20.667969 27.332031 L 20.667969 30.667969 L 19.332031 30.667969 L 19.332031 27.332031 L 16.667969 27.332031 L 16.667969 30.667969 L 15.332031 30.667969 L 15.332031 27.332031 L 12.667969 27.332031 L 12.667969 30.667969 L 11.332031 30.667969 L 11.332031 27.332031 L 8.667969 27.332031 L 8.667969 30.667969 L 7.332031 30.667969 L 7.332031 27.332031 L 5.332031 27.332031 C 4.964844 27.332031 4.667969 27.035156 4.667969 26.667969 L 4.667969 24.667969 L 1.332031 24.667969 L 1.332031 23.332031 L 4.667969 23.332031 L 4.667969 20.667969 L 1.332031 20.667969 L 1.332031 19.332031 L 4.667969 19.332031 L 4.667969 16.667969 L 1.332031 16.667969 L 1.332031 15.332031 L 4.667969 15.332031 L 4.667969 12.667969 L 1.332031 12.667969 L 1.332031 11.332031 L 4.667969 11.332031 L 4.667969 8.667969 L 1.332031 8.667969 L 1.332031 7.332031 L 4.667969 7.332031 L 4.667969 5.332031 C 4.667969 4.964844 4.964844 4.667969 5.332031 4.667969 L 7.332031 4.667969 L 7.332031 1.332031 L 8.667969 1.332031 L 8.667969 4.667969 L 11.332031 4.667969 L 11.332031 1.332031 L 12.667969 1.332031 L 12.667969 4.667969 L 15.332031 4.667969 L 15.332031 1.332031 L 16.667969 1.332031 L 16.667969 4.667969 L 19.332031 4.667969 L 19.332031 1.332031 L 20.667969 1.332031 L 20.667969 4.667969 L 23.332031 4.667969 L 23.332031 1.332031 L 24.667969 1.332031 L 24.667969 4.667969 L 26.667969 4.667969 C 27.035156 4.667969 27.332031 4.964844 27.332031 5.332031 L 27.332031 7.332031 L 30.667969 7.332031 L 30.667969 8.667969 Z M 22.46875 13.617188 C 22.671875 13.617188 22.835938 13.5625 22.953125 13.449219 C 23.070312 13.339844 23.128906 13.183594 23.128906 12.984375 C 23.128906 12.785156 23.070312 12.628906 22.953125 12.515625 C 22.820312 12.402344 22.644531 12.339844 22.46875 12.347656 C 22.289062 12.339844 22.117188 12.398438 21.980469 12.515625 C 21.863281 12.628906 21.804688 12.785156 21.804688 12.984375 C 21.804688 13.183594 21.863281 13.339844 21.980469 13.449219 C 22.101562 13.5625 22.261719 13.617188 22.46875 13.617188 M 21.917969 19.152344 L 23.019531 19.152344 L 23.019531 14.402344 L 21.917969 14.402344 Z M 17.5 16.417969 C 17.542969 17.742188 17.976562 18.40625 18.796875 18.40625 C 19.128906 18.40625 19.390625 18.304688 19.578125 18.097656 C 19.769531 17.894531 19.863281 17.605469 19.863281 17.238281 C 19.863281 16.867188 19.765625 16.582031 19.570312 16.386719 C 19.375 16.1875 19.09375 16.089844 18.722656 16.089844 C 18.320312 16.089844 17.914062 16.199219 17.5 16.417969 M 16.964844 18.5 C 16.570312 17.96875 16.371094 17.1875 16.371094 16.15625 C 16.371094 15.011719 16.605469 14.121094 17.078125 13.488281 C 17.546875 12.851562 18.207031 12.535156 19.058594 12.535156 C 19.328125 12.535156 19.597656 12.566406 19.867188 12.625 C 20.136719 12.683594 20.371094 12.761719 20.5625 12.863281 L 20.5625 13.675781 C 20.351562 13.59375 20.128906 13.53125 19.902344 13.492188 C 19.675781 13.445312 19.445312 13.421875 19.214844 13.421875 C 18.65625 13.421875 18.238281 13.609375 17.960938 13.980469 C 17.6875 14.355469 17.53125 14.929688 17.5 15.707031 C 17.964844 15.398438 18.511719 15.234375 19.070312 15.234375 C 19.648438 15.234375 20.113281 15.410156 20.464844 15.761719 C 20.816406 16.113281 20.992188 16.578125 20.992188 17.164062 C 20.992188 17.574219 20.902344 17.941406 20.714844 18.261719 C 20.535156 18.582031 20.269531 18.835938 19.921875 19.015625 C 19.578125 19.199219 19.175781 19.292969 18.714844 19.292969 C 17.941406 19.292969 17.359375 19.027344 16.964844 18.5 M 9.988281 19.152344 L 8.941406 19.152344 L 8.941406 12.683594 L 10.210938 12.683594 L 12.152344 16.539062 L 14.132812 12.683594 L 15.363281 12.683594 L 15.363281 19.152344 L 14.320312 19.152344 L 14.320312 14.308594 L 12.636719 17.527344 L 11.613281 17.527344 L 9.988281 14.328125 Z M 9.988281 19.152344 "/>
</svg>

<svg role="img" viewBox="0 0 32 32" height="32" width="32" xmlns="http://www.w3.org/2000/svg"><path d="M6 26h20V6H6ZM27.332 8.668v2.664h3.336v1.336h-3.336v2.664h3.336v1.336h-3.336v2.664h3.336v1.336h-3.336v2.664h3.336v1.336h-3.336v2a.664.664 0 0 1-.664.664h-2v3.336h-1.336v-3.336h-2.664v3.336h-1.336v-3.336h-2.664v3.336h-1.336v-3.336h-2.664v3.336h-1.336v-3.336H8.668v3.336H7.332v-3.336h-2a.664.664 0 0 1-.664-.664v-2H1.332v-1.336h3.336v-2.664H1.332v-1.336h3.336v-2.664H1.332v-1.336h3.336v-2.664H1.332v-1.336h3.336V8.668H1.332V7.332h3.336v-2c0-.367.297-.664.664-.664h2V1.332h1.336v3.336h2.664V1.332h1.336v3.336h2.664V1.332h1.336v3.336h2.664V1.332h1.336v3.336h2.664V1.332h1.336v3.336h2c.367 0 .664.297.664.664v2h3.336v1.336Zm-4.863 4.95c.203 0 .367-.056.484-.169.117-.11.176-.265.176-.465 0-.199-.059-.355-.176-.468a.706.706 0 0 0-.484-.168.697.697 0 0 0-.489.168c-.117.113-.175.27-.175.468 0 .2.058.356.175.465.122.114.282.168.489.168m-.551 5.535h1.102v-4.75h-1.102ZM17.5 16.418c.043 1.324.477 1.988 1.297 1.988.332 0 .594-.101.781-.308.192-.203.285-.493.285-.86 0-.37-.097-.656-.293-.851-.195-.2-.476-.297-.847-.297-.403 0-.809.11-1.223.328m-.535 2.082c-.395-.531-.594-1.312-.594-2.344 0-1.144.234-2.035.707-2.668.469-.636 1.129-.953 1.98-.953.27 0 .54.031.81.09.269.059.503.137.695.238v.813a3.442 3.442 0 0 0-.66-.184 3.394 3.394 0 0 0-.688-.07c-.559 0-.977.187-1.254.558-.273.375-.43.95-.461 1.727a2.84 2.84 0 0 1 1.57-.473c.578 0 1.043.176 1.395.528.351.351.527.816.527 1.402 0 .41-.09.777-.277 1.098-.18.32-.445.574-.793.754-.344.183-.746.277-1.207.277-.774 0-1.356-.266-1.75-.793m-6.977.652H8.941v-6.468h1.27l1.941 3.855 1.98-3.855h1.231v6.468H14.32V14.31l-1.683 3.218h-1.024l-1.625-3.199Zm0 0" fill="rgb(83.137255%, 35.686275%, 2.745098%)" fill-rule="evenodd"/></svg>
